src/icons/28/Arrow Down Circle Fill.svg

<svg fill="none" height="28" viewBox="0 0 28 28" width="28" xmlns="http://www.w3.org/2000/svg"><path clip-rule="evenodd" d="m14 25c6.0751 0 11-4.9249 11-11 0-6.07513-4.9249-11-11-11-6.07513 0-11 4.92487-11 11 0 6.0751 4.92487 11 11 11zm-3.4343-10.5657c-.3124-.3124-.81897-.3124-1.13139 0-.31241.3124-.31241.819 0 1.1314l3.99999 4c.3124.3124.819.3124 1.1314 0l4-4c.3124-.3124.3124-.819 0-1.1314s-.819-.3124-1.1314 0l-2.6343 2.6343v-7.5686c0-.44183-.3582-.8-.8-.8s-.8.35817-.8.8v7.5686z" fill="#000" fill-rule="evenodd"/></svg>

<svg width="28" height="28" viewBox="0 0 28 28" fill="none" xmlns="http://www.w3.org/2000/svg">
<path fill-rule="evenodd" clip-rule="evenodd" d="M14 25C20.0751 25 25 20.0751 25 14C25 7.92487 20.0751 3 14 3C7.92487 3 3 7.92487 3 14C3 20.0751 7.92487 25 14 25ZM10.5657 14.4343C10.2533 14.1219 9.74673 14.1219 9.43431 14.4343C9.1219 14.7467 9.1219 15.2533 9.43431 15.5657L13.4343 19.5657C13.7467 19.8781 14.2533 19.8781 14.5657 19.5657L18.5657 15.5657C18.8781 15.2533 18.8781 14.7467 18.5657 14.4343C18.2533 14.1219 17.7467 14.1219 17.4343 14.4343L14.8 17.0686V9.5C14.8 9.05817 14.4418 8.7 14 8.7C13.5582 8.7 13.2 9.05817 13.2 9.5V17.0686L10.5657 14.4343Z" fill="black"/>
</svg>
